X: 183
T: Willie Mackenzie's Reel
C: trad.
R: reel
Z: 2018 John Chambers <jc:trillian.mit.edu>
N: Handout of unknown origin, Fiddle Hell 2014
M: C|
L: 1/8
K: Hp
|:\
{gef}e2 {g}d>e {g}A>{d}A{e}A>{d}B | {gf}g2 {a}f<g {a}B<{d}G{g}B<d |\
{gef}e2 {g}d>e {A}e>A{g}e<a | g>e{g}d>B {g}A>{d}A{e}A>{d}B :|
{gAGAG}A2 a2 {g}a2 e>f | {gf}g2 a>e {g}f>d{G}d>e |\
{gAGAG}A2 a2 {g}a2 e>f | {a}g>e{g}d>B {g}A>{d}A{e}A>{d}B |
{gAGAG}A2 a2 {g}a2 e>f | {gf}g2 a>e {g}f>d{G}d>e |\
a>e{g}f>d {g}e2 {AGAG}A<a | g>e{g}d>B {g}A{d}A{e}A2 |]
